build/assets/images/proyectos/logos/logo-tagliatella.svg

<svg width="200" height="200" viewBox="0 0 200 200" fill="none" xmlns="http://www.w3.org/2000/svg">
<rect width="200" height="200" fill="white"/>
<g clip-path="url(#clip0)">
<path d="M39.3661 109.448C43.082 110.322 46.7978 111.24 50.47 112.115C50.0328 110.891 49.3771 109.885 49.4208 108.923C49.4208 107.918 49.9017 106.781 50.47 105.907C51.7814 103.765 53.7486 102.322 56.153 101.535C57.7268 101.011 59.3005 100.88 60.5683 101.885C61.6175 101.535 62.4918 101.273 63.3661 101.011C63.4536 101.098 63.4973 101.186 63.5847 101.273C61.9235 104.202 60.2186 107.175 58.5574 110.104C58.6448 110.191 58.776 110.322 58.8634 110.41C59.8251 109.667 60.7432 108.923 61.7486 108.137C62.4481 108.443 62.7104 108.836 61.9672 109.404C61.0055 110.191 60.0437 111.066 58.9508 111.678C57.6831 112.377 56.9836 111.984 56.459 110.585C56.1967 110.716 55.8907 110.803 55.6721 111.022C52.3935 113.82 48.5465 113.82 44.612 113.295C42.2514 112.989 39.8907 112.464 37.6175 111.678C35.2568 110.891 32.9836 110.891 30.5792 111.109C28.0874 111.328 25.5519 111.153 23.0164 111.066C22.4481 111.066 21.8361 110.934 21.3989 110.585C20.8306 110.148 20.0437 109.448 20.0874 108.923C20.0874 108.355 20.918 107.393 21.4863 107.35C23.9344 107.087 26.4262 106.869 28.8743 107.087C31.3224 107.306 33.7268 108.049 36.1749 108.486C36.7432 108.574 37.4863 108.53 38.0109 108.268C40.459 107.131 42.1202 105.12 43.694 102.76C42.1639 103.59 40.8087 104.377 39.4098 105.033C36.9618 106.169 34.4262 106.607 31.7596 106.082C30.0984 105.732 28.6557 104.989 27.5191 103.678C27.3443 103.503 27.388 103.153 27.3443 102.891C27.6066 102.891 27.9126 102.847 28.1749 102.891C28.3934 102.934 28.5683 103.109 28.7432 103.24C31.6284 105.863 34.9945 105.863 38.2732 104.464C42.1639 102.803 45.5738 100.53 47.7159 96.6393C49.9891 92.4863 52.6995 88.6393 56.3716 85.5792C57.3771 84.7486 58.5137 84.0929 59.694 83.5246C60.1311 83.306 61.0492 83.4371 61.3552 83.7431C61.6612 84.0491 61.6612 84.9672 61.4426 85.4043C60.8743 86.541 60.2186 87.765 59.3443 88.683C56.8088 91.4371 54.0984 94.0164 51.4754 96.683C51.0383 97.1202 50.6885 97.6011 50.3825 98.1257C49.4208 99.7869 48.5465 101.492 47.4973 103.066C45.8361 105.601 43.5191 107.437 40.6776 108.574C40.2404 108.749 39.847 108.967 39.4098 109.142C39.3661 109.186 39.3661 109.317 39.3661 109.448ZM53.3989 110.541C53.8361 110.366 54.5792 110.06 55.3224 109.71C57.5082 108.705 58.3388 106.563 59.4317 104.639C59.694 104.202 59.9126 103.372 59.7377 103.197C59.2568 102.803 58.5137 102.454 57.9017 102.454C55.1913 102.585 51.7377 106.038 51.4754 108.705C51.388 109.842 52 110.541 53.3989 110.541ZM60.3934 84.3114C56.153 86.4098 54.2732 90.4317 52 94.6284C55.1038 92.5737 60.2186 86.4535 60.3934 84.3114ZM31.3661 109.885C28.4809 109.011 25.6393 107.874 22.5792 108.18C22.0547 108.224 21.6175 108.705 21.0929 108.967C21.5301 109.273 21.9235 109.754 22.4044 109.841C25.3771 110.497 28.3497 110.366 31.3661 109.885Z" fill="black"/>
<path d="M155.913 110.541C156.962 109.798 158.055 109.098 159.191 108.311C159.41 108.486 159.672 108.705 160.066 109.011C164.262 101.23 168.415 93.5792 172.568 85.8853C172.481 85.7978 172.437 85.7541 172.35 85.6667C171.65 86.1476 170.995 86.6284 170.208 87.153C169.989 86.8907 169.727 86.6284 169.377 86.2787C170.426 85.5355 171.301 84.7049 172.35 84.2241C173.005 83.918 173.88 84.0055 174.667 83.918C174.623 84.7049 174.798 85.5792 174.492 86.1913C173.312 88.5956 172 90.8689 170.732 93.2295C167.847 98.5191 164.962 103.809 162.12 109.055C161.902 109.404 161.771 109.798 161.683 110.279C163.388 109.667 164.962 108.967 165.749 107.219C167.191 103.984 169.683 102.06 173.005 101.186C174.317 100.836 175.628 100.924 176.59 101.754C177.596 101.404 178.514 101.142 179.432 100.836C179.519 100.924 179.563 101.011 179.65 101.055C177.945 104.027 176.284 107 174.579 109.973C174.71 110.06 174.798 110.191 174.929 110.279C175.847 109.536 176.765 108.792 177.814 107.962C178.033 108.137 178.295 108.311 178.82 108.749C177.465 109.754 176.328 110.76 175.016 111.546C173.749 112.29 173.049 111.896 172.568 110.628C171.257 111.022 169.989 111.59 168.634 111.809C167.06 112.071 165.967 111.24 165.399 109.754C164.35 110.41 163.432 111.153 162.339 111.59C161.639 111.852 160.634 111.94 160.022 111.634C159.628 111.415 159.628 110.366 159.41 109.667C159.279 109.754 158.973 109.973 158.667 110.191C158.142 110.585 157.618 110.978 157.049 111.284C156.044 111.809 154.907 112.552 153.902 111.59C152.94 110.716 153.683 109.623 154.164 108.705C158.055 101.448 161.989 94.1913 165.88 86.9782C166.055 86.6284 166.23 86.235 166.23 85.6667C165.574 86.1476 164.962 86.6284 164.175 87.153C163.913 86.9344 163.65 86.7159 163.388 86.4536C163.519 86.2787 163.563 86.1476 163.65 86.1038C164.787 85.317 165.924 84.5301 167.148 83.8306C167.497 83.6557 168.24 83.6557 168.459 83.918C168.765 84.2241 168.896 84.8798 168.765 85.3169C168.634 85.9727 168.24 86.5847 167.891 87.1967C163.956 94.4098 160.022 101.667 156.087 108.88C155.869 109.317 155.65 109.798 155.432 110.235C155.694 110.366 155.825 110.454 155.913 110.541ZM167.628 108.661C167.541 109.929 168.328 110.672 169.596 110.322C170.426 110.104 171.213 109.667 171.956 109.273C173.88 108.224 174.536 106.169 175.585 104.464C176.372 103.197 175.847 102.366 174.273 102.366C171.563 102.366 167.76 105.951 167.628 108.661Z" fill="black"/>
<path d="M98.5573 88.989C94.5792 88.0273 90.8196 86.8907 86.9726 87.5027C81.2021 88.4207 76.918 91.7431 74.2076 96.9016C73.2896 98.6502 73.0273 100.617 74.2513 102.497C74.4262 102.76 74.2076 103.284 74.1639 103.765C72.459 102.76 71.8032 100.836 72.5027 98.5191C73.989 93.6229 77.1366 90.0819 81.6393 87.765C86.5355 85.2732 91.7814 85.0983 97.071 86.0601C98.5573 86.3223 100.044 86.7158 101.574 86.9344C102.186 87.0218 102.885 86.8907 103.453 86.7158C106.732 85.7103 110.055 84.6174 113.552 85.0983C114.208 85.1857 114.951 85.4043 115.519 85.754C116.044 86.1038 116.699 86.7595 116.699 87.2841C116.699 87.765 116 88.5519 115.432 88.7267C113.77 89.295 112.022 89.9508 110.273 89.9945C107.563 90.0819 104.765 89.907 102.098 89.5136C100.525 89.295 99.3879 89.6448 98.2513 90.5628C95.5409 92.7049 93.6611 95.5464 92.1311 98.6065C90.9508 100.967 89.9453 103.459 88.459 105.688C84.612 111.459 79.2786 114.694 72.1529 114.126C70.448 113.994 68.6557 113.208 67.2568 112.246C65.3333 110.934 65.4207 108.311 67.3879 106.913C67.3442 107.612 67.3879 108.137 67.2568 108.617C66.8196 110.104 67.0382 110.891 68.306 111.765C70.7978 113.426 73.4644 113.732 76.306 112.727C78.7103 111.852 80.765 110.453 82.3387 108.486C84.306 106.082 86.1857 103.634 87.7158 100.967C90.3825 96.4207 93.4863 92.3551 97.9453 89.4262C98.1202 89.3825 98.2513 89.2513 98.5573 88.989ZM104.852 87.7213C105.77 87.8961 106.688 88.2021 107.607 88.2021C109.967 88.2458 112.328 88.1584 114.688 88.071C114.994 88.071 115.3 87.5464 115.563 87.2841C115.257 87.0655 114.994 86.7158 114.688 86.6284C111.279 85.6229 108.044 86.3661 104.852 87.7213Z" fill="black"/>
<path d="M112.721 101.842C113.902 101.492 114.776 101.273 115.65 101.011C115.738 101.142 115.825 101.23 115.956 101.361C113.115 105.863 110.317 110.454 107.344 114.913C106.076 116.792 104.197 118.148 101.705 117.842C101.049 117.754 100.131 117.142 100 116.618C99.8251 115.962 100.219 115.087 100.656 114.432C100.831 114.169 101.792 114.038 102.098 114.257C102.667 114.65 102.448 115.219 101.792 115.612C101.617 115.7 101.399 116.137 101.443 116.224C101.617 116.443 101.923 116.661 102.142 116.618C102.842 116.486 103.76 116.399 104.197 115.962C105.639 114.388 106.907 112.683 108.131 110.891C103.672 112.202 102.623 112.027 101.574 109.536C100.612 110.235 99.7377 110.978 98.7322 111.59C97.2459 112.465 96.5902 112.202 95.8907 110.76C94.8415 111.153 93.8361 111.678 92.7432 111.896C90.0765 112.508 88.459 110.891 88.9399 108.224C89.5082 104.771 94.5355 100.88 98.0765 101.23C98.8197 101.317 99.5628 101.71 100.131 101.885C101.093 101.579 102.011 101.317 102.885 101.011C102.929 101.098 103.016 101.186 103.06 101.273C101.399 104.246 99.694 107.175 98.0328 110.148C98.1202 110.235 98.2514 110.322 98.3388 110.41C99.9126 109.492 101.355 108.443 102.273 106.738C103.803 104.027 106.076 102.235 109.093 101.404C110.842 100.924 111.41 101.055 112.721 101.842ZM90.9071 108.792C90.8197 110.06 91.4754 110.76 92.6994 110.541C93.4863 110.41 94.2295 110.016 94.9727 109.623C97.0273 108.574 97.7705 106.475 98.8634 104.683C99.6066 103.415 99.082 102.541 97.6393 102.497C95.0164 102.454 91.082 106.169 90.9071 108.792ZM105.639 110.148C105.989 110.016 106.645 109.842 107.257 109.579C109.355 108.618 110.579 106.825 111.541 104.858C111.803 104.377 112.066 103.372 111.934 103.284C111.322 102.891 110.536 102.497 109.836 102.585C107.257 102.934 104.372 105.863 103.803 108.355C103.628 109.536 104.109 110.148 105.639 110.148Z" fill="black"/>
<path d="M138.995 108.88C140.175 106.913 141.355 104.902 142.623 102.76C141.967 102.672 141.399 102.628 140.831 102.585C140.787 101.623 141.18 101.098 142.186 101.273C143.279 101.448 143.847 100.924 144.328 100.005C144.853 98.9126 145.552 97.9071 145.989 96.6394C145.552 97.0328 145.027 97.3825 144.634 97.8197C144.066 98.4754 143.628 98.3443 143.016 97.5574C144.066 96.7268 145.071 95.8088 146.208 95.153C146.689 94.847 147.519 95.0656 148.175 95.0219C148.175 95.6776 148.393 96.3771 148.175 96.9454C147.781 97.9508 147.126 98.8689 146.601 99.7869C146.383 100.18 146.164 100.618 145.858 101.142C146.514 101.23 147.038 101.273 147.563 101.317C147.738 102.322 147.388 102.803 146.383 102.628C145.246 102.454 144.678 102.934 144.153 103.896C142.973 106.038 141.705 108.093 140.612 110.322C142.536 109.71 144.284 108.88 145.29 107.044C146.82 104.202 149.093 102.191 152.24 101.317C152.284 101.317 152.328 101.273 152.372 101.273C153.552 101.055 154.776 100.836 155.563 102.06C156.131 102.934 155.607 104.377 154.383 105.339C152.678 106.738 150.579 107.219 148.437 107.568C147.213 107.787 146.645 108.399 146.863 109.404C147.082 110.541 148.044 110.454 148.831 110.366C149.53 110.279 150.273 110.016 150.929 109.754C151.585 109.492 152.153 109.098 152.765 108.749C153.465 109.273 153.639 109.754 152.721 110.148C151.148 110.76 149.618 111.546 148 111.852C146.12 112.202 145.202 111.415 144.59 109.536C143.891 110.06 143.191 110.628 142.448 111.066C141.836 111.415 141.137 111.765 140.437 111.94C139.038 112.246 138.251 111.415 138.689 109.973C138.689 109.579 138.863 109.23 138.995 108.88ZM147.781 106.475C150.055 106.038 152.022 105.689 153.29 104.027C153.552 103.721 153.508 103.153 153.639 102.716C153.202 102.628 152.721 102.41 152.328 102.541C150.404 103.066 149.093 104.421 147.781 106.475Z" fill="black"/>
<path d="M139.038 108.836C137.858 109.754 136.721 110.803 135.41 111.59C134.055 112.421 133.268 112.071 132.743 110.803C131.344 111.197 130.033 111.765 128.634 111.94C127.06 112.158 126.011 111.24 125.53 109.623C124.831 110.148 124.219 110.628 123.563 111.022C122.951 111.372 122.339 111.765 121.683 111.852C121.071 111.896 120.197 111.765 119.847 111.328C119.541 110.978 119.585 110.06 119.803 109.535C120.721 107.699 121.771 105.951 122.732 104.158C122.951 103.765 123.126 103.328 123.301 102.934C123.213 102.847 123.126 102.76 122.995 102.672C122.077 103.415 121.158 104.158 120.24 104.945C119.279 104.421 119.191 104.333 119.978 103.678C120.984 102.803 122.077 101.973 123.257 101.361C123.738 101.098 124.787 101.186 125.137 101.535C125.486 101.885 125.486 102.891 125.268 103.415C124.35 105.339 123.257 107.175 122.251 109.055C122.033 109.448 121.858 109.798 121.771 110.279C123.607 109.579 125.224 108.617 126.142 106.825C127.628 103.984 129.989 102.104 133.093 101.317C134.842 100.88 135.366 101.011 136.721 101.798C137.771 101.492 138.689 101.186 139.563 100.923C139.607 101.011 139.694 101.098 139.738 101.186C138.077 104.115 136.415 107.044 134.754 109.973C134.842 110.06 134.973 110.191 135.06 110.279C136.022 109.535 136.94 108.836 137.945 108.049C138.295 108.355 138.645 108.617 139.038 108.836C139.038 108.836 138.995 108.88 139.038 108.836ZM129.639 110.585C130.077 110.41 130.82 110.104 131.563 109.754C133.792 108.705 134.579 106.475 135.716 104.552C135.934 104.202 136.197 103.459 136.022 103.328C135.585 102.934 134.929 102.497 134.361 102.497C131.65 102.454 127.76 106.257 127.672 108.923C127.716 109.973 128.197 110.541 129.639 110.585Z" fill="black"/>
<path d="M114.951 110.497C115.519 110.148 116.044 109.885 116.612 109.492C117.137 109.142 117.661 108.705 118.317 108.18C118.536 108.443 118.754 108.705 118.929 108.924C118.885 109.098 118.885 109.23 118.798 109.273C117.574 110.104 116.437 111.066 115.126 111.721C114.557 111.984 113.465 111.896 113.027 111.503C112.678 111.197 112.721 110.06 112.984 109.492C114.82 105.863 116.743 102.322 118.667 98.7815C120.809 94.8033 122.951 90.8252 125.137 86.847C125.312 86.541 125.399 86.235 125.399 85.7541C124.7 86.235 124.044 86.7159 123.301 87.2405C123.082 87.0219 122.863 86.7596 122.645 86.541C122.689 86.4099 122.689 86.2787 122.732 86.235C123.694 85.5356 124.656 84.705 125.705 84.1367C126.273 83.8307 127.06 84.0492 127.76 84.0055C127.76 84.705 127.934 85.4919 127.672 86.0602C126.273 88.8143 124.787 91.5246 123.301 94.235C120.59 99.2623 117.836 104.246 115.126 109.273C114.951 109.579 114.82 109.973 114.689 110.322C114.732 110.322 114.82 110.41 114.951 110.497Z" fill="black"/>
<path d="M128.896 94.1476C128.678 93.8853 128.197 93.4919 128.153 93.0984C128.109 92.1367 128.809 91.5684 129.727 91.5684C130.077 91.5684 130.732 92.1804 130.776 92.5738C130.863 93.4919 130.164 94.0164 128.896 94.1476Z" fill="black"/>
</g>
<defs>
<clipPath id="clip0">
<rect width="160" height="34.9727" fill="white" transform="translate(20 83)"/>
</clipPath>
</defs>
</svg>

<svg width="200" height="200" fill="none" xmlns="http://www.w3.org/2000/svg"><path fill="#fff" d="M0 0h200v200H0z"/><g clip-path="url(#clip0)" fill="#000"><path d="M39.366 109.448c3.716.874 7.432 1.792 11.104 2.667-.437-1.224-1.093-2.23-1.05-3.192 0-1.005.482-2.142 1.05-3.016 1.311-2.142 3.279-3.585 5.683-4.372 1.574-.524 3.148-.655 4.415.35 1.05-.35 1.924-.612 2.798-.874.088.087.131.175.219.262-1.662 2.929-3.366 5.902-5.028 8.831l.306.306c.962-.743 1.88-1.487 2.886-2.273.7.306.961.699.218 1.267-.962.787-1.923 1.662-3.016 2.274-1.268.699-1.967.306-2.492-1.093-.262.131-.568.218-.787.437-3.278 2.798-7.125 2.798-11.06 2.273-2.36-.306-4.721-.831-6.995-1.617-2.36-.787-4.633-.787-7.038-.569-2.492.219-5.027.044-7.563-.043-.568 0-1.18-.132-1.617-.481-.568-.437-1.355-1.137-1.312-1.662 0-.568.831-1.53 1.4-1.573 2.447-.263 4.94-.481 7.387-.263 2.448.219 4.853.962 7.3 1.399.57.088 1.312.044 1.837-.218 2.448-1.137 4.11-3.148 5.683-5.508-1.53.83-2.885 1.617-4.284 2.273-2.448 1.136-4.984 1.574-7.65 1.049-1.662-.35-3.104-1.093-4.24-2.404-.176-.175-.132-.525-.176-.787.263 0 .569-.044.83 0 .22.043.394.218.57.349 2.884 2.623 6.25 2.623 9.53 1.224 3.89-1.661 7.3-3.934 9.442-7.825 2.273-4.153 4.983-8 8.656-11.06 1.005-.83 2.142-1.486 3.322-2.054.437-.219 1.355-.088 1.661.218.306.306.306 1.224.088 1.661-.569 1.137-1.224 2.361-2.099 3.279-2.535 2.754-5.246 5.333-7.869 8a6.972 6.972 0 00-1.093 1.443c-.961 1.66-1.835 3.366-2.885 4.94-1.66 2.535-3.978 4.371-6.82 5.508-.437.175-.83.393-1.267.568-.044.044-.044.175-.044.306zm14.033 1.093a36.67 36.67 0 001.923-.831c2.186-1.005 3.017-3.147 4.11-5.071.262-.437.48-1.267.306-1.442-.481-.394-1.224-.743-1.836-.743-2.71.131-6.164 3.584-6.427 6.251-.087 1.137.525 1.836 1.924 1.836zm6.994-26.23c-4.24 2.099-6.12 6.12-8.393 10.317 3.104-2.054 8.219-8.174 8.393-10.317zm-29.027 25.574c-2.885-.874-5.727-2.011-8.787-1.705-.524.044-.962.525-1.486.787.437.306.83.787 1.311.874 2.973.656 5.946.525 8.962.044zm124.547.656c1.049-.743 2.142-1.443 3.278-2.23.219.175.481.394.875.7 4.196-7.781 8.349-15.432 12.502-23.126l-.218-.218c-.7.48-1.355.961-2.142 1.486a13.84 13.84 0 00-.831-.874c1.049-.743 1.924-1.574 2.973-2.055.655-.306 1.53-.219 2.317-.306-.044.787.131 1.661-.175 2.273-1.18 2.405-2.492 4.678-3.76 7.038-2.885 5.29-5.77 10.58-8.612 15.826-.218.349-.349.743-.437 1.224 1.705-.612 3.279-1.312 4.066-3.06 1.442-3.235 3.934-5.159 7.256-6.033 1.312-.35 2.623-.262 3.585.568 1.006-.35 1.924-.612 2.842-.918.087.088.131.175.218.219-1.705 2.972-3.366 5.945-5.071 8.918.131.087.219.218.35.306.918-.743 1.836-1.487 2.885-2.317.219.175.481.349 1.006.787-1.355 1.005-2.492 2.011-3.804 2.797-1.267.744-1.967.35-2.448-.918-1.311.394-2.579.962-3.934 1.181-1.574.262-2.667-.569-3.235-2.055-1.049.656-1.967 1.399-3.06 1.836-.7.262-1.705.35-2.317.044-.394-.219-.394-1.268-.612-1.967-.131.087-.437.306-.743.524-.525.394-1.049.787-1.618 1.093-1.005.525-2.142 1.268-3.147.306-.962-.874-.219-1.967.262-2.885 3.891-7.257 7.825-14.514 11.716-21.727.175-.35.35-.743.35-1.311-.656.48-1.268.961-2.055 1.486-.262-.219-.525-.437-.787-.7.131-.174.175-.305.262-.35 1.137-.786 2.274-1.573 3.498-2.272.349-.175 1.092-.175 1.311.087.306.306.437.962.306 1.399-.131.656-.525 1.268-.874 1.88-3.935 7.213-7.869 14.47-11.804 21.683-.218.437-.437.918-.655 1.355.262.131.393.219.481.306zm11.715-1.88c-.087 1.268.7 2.011 1.968 1.661.83-.218 1.617-.655 2.36-1.049 1.924-1.049 2.58-3.104 3.629-4.809.787-1.267.262-2.098-1.312-2.098-2.71 0-6.513 3.585-6.645 6.295zM98.557 88.989c-3.978-.962-7.737-2.098-11.584-1.486-5.77.918-10.055 4.24-12.765 9.399-.918 1.748-1.18 3.715.043 5.595.175.263-.043.787-.087 1.268-1.705-1.005-2.36-2.929-1.661-5.246 1.486-4.896 4.634-8.437 9.136-10.754 4.897-2.492 10.142-2.667 15.432-1.705 1.486.262 2.973.656 4.503.874.612.088 1.311-.043 1.879-.218 3.279-1.006 6.602-2.099 10.099-1.618.656.088 1.399.306 1.967.656.525.35 1.18 1.005 1.18 1.53 0 .481-.699 1.268-1.267 1.443-1.662.568-3.41 1.224-5.159 1.267a46.42 46.42 0 01-8.175-.48c-1.573-.219-2.71.13-3.847 1.049-2.71 2.142-4.59 4.983-6.12 8.043-1.18 2.361-2.186 4.853-3.672 7.082-3.847 5.771-9.18 9.006-16.306 8.438-1.705-.132-3.497-.918-4.896-1.88-1.924-1.312-1.836-3.935.13-5.333-.043.699 0 1.224-.13 1.704-.437 1.487-.219 2.274 1.049 3.148 2.492 1.661 5.158 1.967 8 .962 2.404-.875 4.459-2.274 6.033-4.241 1.967-2.404 3.847-4.852 5.377-7.519 2.666-4.546 5.77-8.612 10.23-11.54.174-.045.305-.176.611-.438zm6.295-1.268c.918.175 1.836.481 2.755.481 2.36.044 4.721-.044 7.081-.131.306 0 .612-.525.875-.787-.306-.219-.569-.568-.875-.656-3.409-1.005-6.644-.262-9.836 1.093z"/><path d="M112.721 101.842c1.181-.35 2.055-.569 2.929-.831.088.131.175.219.306.35-2.841 4.502-5.639 9.093-8.612 13.552-1.268 1.879-3.147 3.235-5.639 2.929-.656-.088-1.574-.7-1.705-1.224-.175-.656.219-1.531.656-2.186.175-.263 1.136-.394 1.442-.175.569.393.35.962-.306 1.355-.175.088-.393.525-.349.612.174.219.48.437.699.394.7-.132 1.618-.219 2.055-.656 1.442-1.574 2.71-3.279 3.934-5.071-4.459 1.311-5.508 1.136-6.557-1.355-.962.699-1.836 1.442-2.842 2.054-1.486.875-2.142.612-2.841-.83-1.05.393-2.055.918-3.148 1.136-2.666.612-4.284-1.005-3.803-3.672.568-3.453 5.596-7.344 9.136-6.994.744.087 1.487.48 2.055.655.962-.306 1.88-.568 2.754-.874.044.087.131.175.175.262-1.661 2.973-3.366 5.902-5.027 8.875.087.087.218.174.306.262 1.574-.918 3.016-1.967 3.934-3.672 1.53-2.711 3.803-4.503 6.82-5.334 1.749-.48 2.317-.349 3.628.438zm-21.814 6.95c-.087 1.268.568 1.968 1.792 1.749.787-.131 1.53-.525 2.274-.918 2.054-1.049 2.797-3.148 3.89-4.94.744-1.268.219-2.142-1.224-2.186-2.623-.043-6.557 3.672-6.732 6.295zm14.732 1.356c.35-.132 1.006-.306 1.618-.569 2.098-.961 3.322-2.754 4.284-4.721.262-.481.525-1.486.393-1.574-.612-.393-1.398-.787-2.098-.699-2.579.349-5.464 3.278-6.033 5.77-.175 1.181.306 1.793 1.836 1.793zm33.356-1.268c1.18-1.967 2.36-3.978 3.628-6.12a29.787 29.787 0 00-1.792-.175c-.044-.962.349-1.487 1.355-1.312 1.093.175 1.661-.349 2.142-1.268.525-1.092 1.224-2.098 1.661-3.366-.437.394-.962.743-1.355 1.18-.568.656-1.006.525-1.618-.262 1.05-.83 2.055-1.748 3.192-2.404.481-.306 1.311-.087 1.967-.131 0 .656.218 1.355 0 1.923-.394 1.006-1.049 1.924-1.574 2.842-.218.393-.437.831-.743 1.355.656.088 1.18.131 1.705.175.175 1.005-.175 1.486-1.18 1.311-1.137-.174-1.705.306-2.23 1.268-1.18 2.142-2.448 4.197-3.541 6.426 1.924-.612 3.672-1.442 4.678-3.278 1.53-2.842 3.803-4.853 6.95-5.727.044 0 .088-.044.132-.044 1.18-.218 2.404-.437 3.191.787.568.874.044 2.317-1.18 3.279-1.705 1.399-3.804 1.88-5.946 2.229-1.224.219-1.792.831-1.574 1.836.219 1.137 1.181 1.05 1.968.962.699-.087 1.442-.35 2.098-.612.656-.262 1.224-.656 1.836-1.005.7.524.874 1.005-.044 1.399-1.573.612-3.103 1.398-4.721 1.704-1.88.35-2.798-.437-3.41-2.316-.699.524-1.399 1.092-2.142 1.53-.612.349-1.311.699-2.011.874-1.399.306-2.186-.525-1.748-1.967 0-.394.174-.743.306-1.093zm8.786-2.405c2.274-.437 4.241-.786 5.509-2.448.262-.306.218-.874.349-1.311-.437-.088-.918-.306-1.311-.175-1.924.525-3.235 1.88-4.547 3.934z"/><path d="M139.038 108.836c-1.18.918-2.317 1.967-3.628 2.754-1.355.831-2.142.481-2.667-.787-1.399.394-2.71.962-4.109 1.137-1.574.218-2.623-.7-3.104-2.317-.699.525-1.311 1.005-1.967 1.399-.612.35-1.224.743-1.88.83-.612.044-1.486-.087-1.836-.524-.306-.35-.262-1.268-.044-1.793.918-1.836 1.968-3.584 2.929-5.377.219-.393.394-.83.569-1.224-.088-.087-.175-.174-.306-.262-.918.743-1.837 1.486-2.755 2.273-.961-.524-1.049-.612-.262-1.267 1.006-.875 2.099-1.705 3.279-2.317.481-.263 1.53-.175 1.88.174.349.35.349 1.356.131 1.88-.918 1.924-2.011 3.76-3.017 5.64-.218.393-.393.743-.48 1.224 1.836-.7 3.453-1.662 4.371-3.454 1.486-2.841 3.847-4.721 6.951-5.508 1.749-.437 2.273-.306 3.628.481 1.05-.306 1.968-.612 2.842-.875.044.088.131.175.175.263l-4.984 8.787.306.306c.962-.744 1.88-1.443 2.885-2.23.35.306.7.568 1.093.787 0 0-.043.044 0 0zm-9.399 1.749a36.292 36.292 0 001.924-.831c2.229-1.049 3.016-3.279 4.153-5.202.218-.35.481-1.093.306-1.224-.437-.394-1.093-.831-1.661-.831-2.711-.043-6.601 3.76-6.689 6.426.044 1.05.525 1.618 1.967 1.662z"/><path d="M114.951 110.497c.568-.349 1.093-.612 1.661-1.005.525-.35 1.049-.787 1.705-1.312.219.263.437.525.612.744-.044.174-.044.306-.131.349-1.224.831-2.361 1.793-3.672 2.448-.569.263-1.661.175-2.099-.218-.349-.306-.306-1.443-.043-2.011 1.836-3.629 3.759-7.17 5.683-10.71 2.142-3.979 4.284-7.957 6.47-11.935.175-.306.262-.612.262-1.093-.699.481-1.355.962-2.098 1.486-.219-.218-.438-.48-.656-.699.044-.131.044-.262.087-.306.962-.7 1.924-1.53 2.973-2.098.568-.306 1.355-.088 2.055-.132 0 .7.174 1.487-.088 2.055-1.399 2.754-2.885 5.465-4.371 8.175-2.711 5.027-5.465 10.011-8.175 15.038-.175.306-.306.7-.437 1.049.043 0 .131.088.262.175zm13.945-16.349c-.218-.263-.699-.656-.743-1.05-.044-.961.656-1.53 1.574-1.53.35 0 1.005.612 1.049 1.006.087.918-.612 1.442-1.88 1.574z"/></g><defs><clipPath id="clip0"><path fill="#fff" transform="translate(20 83)" d="M0 0h160v34.973H0z"/></clipPath></defs></svg>
